src/assets/icons/savings.svg

<svg width="54" height="54" viewBox="0 0 54 54" fill="none" xmlns="http://www.w3.org/2000/svg">
<circle cx="27" cy="27" r="27" fill="#51D289"/>
<g clip-path="url(#clip0_6_222)">
<path d="M39.75 20.3133V17.0833C39.75 15.525 38.475 14.25 36.9167 14.25H17.0833C15.5108 14.25 14.25 15.525 14.25 17.0833V36.9167C14.25 38.475 15.5108 39.75 17.0833 39.75H36.9167C38.475 39.75 39.75 38.475 39.75 36.9167V33.6867C40.5858 33.1908 41.1667 32.2983 41.1667 31.25V22.75C41.1667 21.7017 40.5858 20.8092 39.75 20.3133ZM38.3333 22.75V31.25H28.4167V22.75H38.3333ZM17.0833 36.9167V17.0833H36.9167V19.9167H28.4167C26.8583 19.9167 25.5833 21.1917 25.5833 22.75V31.25C25.5833 32.8083 26.8583 34.0833 28.4167 34.0833H36.9167V36.9167H17.0833Z" fill="#1E1E1E"/>
<path d="M32.6667 29.125C33.8403 29.125 34.7917 28.1736 34.7917 27C34.7917 25.8264 33.8403 24.875 32.6667 24.875C31.4931 24.875 30.5417 25.8264 30.5417 27C30.5417 28.1736 31.4931 29.125 32.6667 29.125Z" fill="#1E1E1E"/>
</g>
<defs>
<clipPath id="clip0_6_222">
<rect width="34" height="34" fill="white" transform="translate(10 10)"/>
</clipPath>
</defs>
</svg>

<svg width="54" height="54" fill="none" xmlns="http://www.w3.org/2000/svg"><circle cx="27" cy="27" r="27" fill="#51D289"/><g clip-path="url(#prefix__clip0_6_222)" fill="#1E1E1E"><path d="M39.75 20.313v-3.23a2.842 2.842 0 00-2.833-2.833H17.083a2.833 2.833 0 00-2.833 2.833v19.834a2.833 2.833 0 002.833 2.833h19.834a2.842 2.842 0 002.833-2.833v-3.23c.836-.496 1.417-1.389 1.417-2.437v-8.5c0-1.048-.581-1.94-1.417-2.437zm-1.417 2.437v8.5h-9.916v-8.5h9.916zm-21.25 14.167V17.083h19.834v2.834h-8.5a2.842 2.842 0 00-2.834 2.833v8.5a2.842 2.842 0 002.834 2.833h8.5v2.834H17.083z"/><path d="M32.667 29.125a2.125 2.125 0 100-4.25 2.125 2.125 0 000 4.25z"/></g><defs><clipPath id="prefix__clip0_6_222"><path fill="#fff" transform="translate(10 10)" d="M0 0h34v34H0z"/></clipPath></defs></svg>
